svgs/sharp-solid/database.svg

<svg xmlns="http://www.w3.org/2000/svg" viewBox="0 0 448 512"><!--! Font Awesome Pro 6.6.0 by @fontawesome - https://fontawesome.com License - https://fontawesome.com/license (Commercial License) Copyright 2024 Fonticons, Inc. --><path d="M448 80l0 32 0 16 0 16L320 224l-192 0L0 144l0-16 0-16L0 80 128 0 320 0 448 80zM0 432l0-90.3L118.8 416l210.4 0L448 341.7l0 90.3L320 512l-192 0L0 432zM448 288l0 16L320 384l-192 0L0 304l0-16L0 181.7 118.8 256l210.4 0L448 181.7 448 288z"/></svg>

<svg xmlns="http://www.w3.org/2000/svg" viewBox="0 0 448 512"><!--! Font Awesome Pro 6.4.0 by @fontawesome - https://fontawesome.com License - https://fontawesome.com/license (Commercial License) Copyright 2023 Fonticons, Inc. --><path d="M448 80v32 16 16L320 224H128L0 144V128 112 80L128 0H320L448 80zM0 432V341.7L118.8 416H329.2L448 341.7V432L320 512H128L0 432zM448 288v16L320 384H128L0 304V288 181.7L118.8 256H329.2L448 181.7V288z"/></svg>
